X:113
T:Iníon Ní Scannlàin
C:Donogh Hennessy
D:Merry Sisters of Fate, Lunasa
M:3/4
L:1/8
K:G
G3 A- AG|BG~E2 (3DEF|G3 AAG|Bd dA Bd|
e3 g fd|e2 ed BG|A2 AG AB|Bd de BA|
G3 A- AG|BG~E2 (3DEF|G3 A- AG|Bd dA Bd|
e3 g fd|e2 ed BG|A2 AG AB|Bd dA Bd||
e3 a- ab|g3 f ge|d3 e fg|BA GA Bd|
e3 a ab|g3 d ga|b6|bd ad gd|
e2 eg fd|e3 d (3BAG|A2 AG AB|Bd de BG|
A2 AB AG|E3 D (3EFG|A2 AG AB|Bd de BA|]

